X:1
T:Polonaise
T:Polonaise
T:F.Chopin, Op.26.No.1
C:F.Chpoin, Op.26.No.1
%%score { ( 1 5 6 ) | ( 2 3 4 ) }
L:1/8
Q:1/4=104
M:3/4
K:E
V:1 bass nm="Piano" snm="Pno."
V:5 bass 
V:6 bass 
V:2 bass 
V:3 bass 
V:4 bass 
V:1
!ff!"^Allegro apassionato"!<(! (C/4[E,E]7/4)!<)!!ff!!<(! (B,/4[E,E]7/4)!<)!!ff!!<(! (A,/4[E,E]7/4)!<)! | %1
!ff!!<(! (G,/4[E,E]7/4)!<)!!ff!!<(! (^^F,/4[E,E]7/4)!<)! z2 | %2
[K:treble]!fff! [e^ac'e']>.[E^Ace] .[EGce]2 .[FG^Bd]2 | .[EGc]2 .[cegc']2 z!p![Q:1/4=60] (G | %4
[Q:1/4=94]!<(! d3 c/d/[Q:1/4=96] ^ed/e/ |[Q:1/4=98] f^e/f/[Q:1/4=100] gf/g/!<)![Q:1/4=92]!mf! aA | %6
[Q:1/4=100] G2-)[Q:1/4=96] (3(G.^A.^B[Q:1/4=92] (3.c.d.e | %7
"^ten."[Q:1/4=88] d6)[Q:1/4=84][Q:1/4=80] | %8
[Q:1/4=94]!p! (3(ddd[Q:1/4=96] d(c/d/[Q:1/4=98] ^e)(d/e/ | %9
[Q:1/4=100] f)(^e/"^poco rit."f/[Q:1/4=96] g)(f/g/[Q:1/4=92]!>(! a)(g/a/!>)! | %10
!pp![Q:1/4=88] (3b)ag[Q:1/4=84] (3Pfef[Q:1/4=80]{/f} A=d | %11
[Q:1/4=92]!pp! x x3[Q:1/4=88][Q:1/4=84] c) z | %12
[K:bass][Q:1/4=104]!ff!!<(! (C/4[E,E]7/4)!<)!!ff!!<(! (B,/4[E,E]7/4)!<)!!ff!!<(! (A,/4[E,E]7/4)!<)! | %13
!ff!!<(! (G,/4[E,E]7/4)!<)!!ff!!<(! (^^F,/4[E,E]7/4)!<)! z2 | %14
[K:treble]!fff! [e^ac'e']>.[E^Ace] .[EGce]2 .[FG^Bd]2 | .[EGc]2 .[cegc']2 z!p![Q:1/4=92] (G | %16
[Q:1/4=94]!<(! d3 c/d/[Q:1/4=96] ^ed/e/ |[Q:1/4=98] f^e/f/[Q:1/4=100] gf/g/!<)!!mf![Q:1/4=92] aA | %18
[Q:1/4=100] G2-)[Q:1/4=96] (3(G.^A.^B[Q:1/4=92] (3.c.d.e | %19
"^ten."[Q:1/4=88] d6)[Q:1/4=84][Q:1/4=80] | %20
[Q:1/4=94]!p! (3(ddd[Q:1/4=96] d(c/d/[Q:1/4=98] ^e)(d/e/ | %21
[Q:1/4=100] f)(^e/"^poco rit."f/[Q:1/4=96] g)(f/g/[Q:1/4=92]!>(! a)(g/a/!>)! | %22
!pp![Q:1/4=88] (3b)ag[Q:1/4=84] (3Pfef[Q:1/4=80]{/f} A=d | %23
[Q:1/4=92]!pp! x x3[Q:1/4=88][Q:1/4=80] c) z |: %24
[Q:1/4=92] z!p!"^sotto voce" (!>![G,^B,]2 [G,B,][G,B,][G,B,]) | %25
[Q:1/4=88] (!>!^^F,2[Q:1/4=92]{^A,CE^^F^Ac} .e) (!>![CF]2!mf! [^B,G]) | %26
 z (!>![G,^B,]2 [G,B,][G,B,][G,B,]) | %27
[Q:1/4=88] (!>!A,2[Q:1/4=92]{^B,DFA^Bdf} .a) (!>![^B,A]2 [CG]) | %28
!f! z!<(! (!>![G,C]2 [G,C][G,C][G,C])!<)! | %29
[Q:1/4=88]"_cresc." !>!^A,2[Q:1/4=92]{CE^^F^A^ce^^f^ac'} .e' (!>![CF]2 [^B,G]) | %30
[Q:1/4=88] (!>!^A,2[Q:1/4=92]{CE^^F^Ace^^f^ac'} .e') ([^A,C^^F]2 [G,^B,G]) | %31
[Q:1/4=84] !>!d6-[Q:1/4=108][Q:1/4=104][Q:1/4=92] | %32
 d[Q:1/4=90] !>!d2[Q:1/4=84] !>!d2[Q:1/4=70] !>!d |[Q:1/4=92]!p! (d2 a2 ga/g/ | f2 d2 cd/c/ | %35
 B2) (a2 ga/g/ |[Q:1/4=88] f2[Q:1/4=84] d2[Q:1/4=80] (7:4:7c/d/c/^B/c/d/e/ | %37
[Q:1/4=88] =B2)[K:bass][Q:1/4=92] (A,2 G,A,/G,/ | F,2 D,2 C,D,/C,/ |!<(! B,,6)[Q:1/4=88] | %40
[Q:1/4=84]"_cresc."{^^A,,^B,,} TB,,6({^A,,B,,}!<)![Q:1/4=80][Q:1/4=76] | %41
[Q:1/4=92]"^(a tempo)" C,) z[K:treble]!mp!!<(! (dc/d/ ed/e/ | fe/f/ gf/g/!<)![Q:1/4=88] aA | %43
[Q:1/4=92] G2-)[Q:1/4=84] (3(G.^A.^B[Q:1/4=80] (3.c.d.e |"^ten." d6)[Q:1/4=78][Q:1/4=76] | %45
!p![Q:1/4=88] (3(ddd[Q:1/4=92] d(c/d/[Q:1/4=96] ^e)(d/e/ | %46
[Q:1/4=98] f)(^e/f/"^ritenuto"[Q:1/4=96] g)(f/g/[Q:1/4=92]!>(! a)g/a/!>)! | %47
[Q:1/4=88]!pp! (3bag[Q:1/4=84] (3Pfef[Q:1/4=80]!p!{/f} A=d | %48
[Q:1/4=76]!pp! x x3[Q:1/4=72] c)[Q:1/4=60] z!fine! :: %49
[K:Db]"^Meno mosso""^con anima"[Q:1/4=84]!p! (f4[Q:1/4=80] (3edB | %50
[Q:1/4=84] A4)[Q:1/4=72][Q:1/4=80] c>B |[Q:1/4=84] E3[Q:1/4=72] (3(E/=F/G/[Q:1/4=80] [GB]>[FA] | %52
[Q:1/4=84] [EG]2{AG} F2)[Q:1/4=80] z2 |[Q:1/4=84]!<(! (d2[Q:1/4=72][Q:1/4=84] g2[Q:1/4=80] f2 | %54
[Q:1/4=76] (6:4:6=d/e/f/e/d/e/[Q:1/4=84] b3[Q:1/4=80][Q:1/4=76][Q:1/4=72] a!<)! | %55
!f![Q:1/4=68]!>(! [=gd'])[Q:1/4=80](!>!f'- f'/=e'/_e'/=d'/ f'/e'/d'/_d'/!>)! | %56
 (c')(3c'/d'/c'/"_dim." b(3b/c'/b/"^ritenuto"[Q:1/4=76] a[Q:1/4=72](3g/a/g/ | %57
"^(a tempo)"[Q:1/4=84]!p! f4[Q:1/4=76] =d/4e/4f/4e/4[Q:1/4=68] (6:4:6g/4f/4e/4_d/4c/4B/4 | %58
[Q:1/4=84] A2)[Q:1/4=80]!<(! (__B2[Q:1/4=76] =A2)!<)! |[Q:1/4=84] (=d2!<(! ^c2 _d2!<)! | %60
!mf! dc/d/ e2 f2 |"_dim." gd/e/ fc fc/=d/ | %62
[Q:1/4=76] eB[Q:1/4=72] e[Q:1/4=68]B/c/[Q:1/4=36] (3!arpeggio!Pd/c/d/ f/)[Q:1/4=20]!fermata!z/4[Q:1/4=80]e/4 | %63
!p! A2- (A/>B/A/>__B/ A/>_B/A/>__B/ | A/z/4=A/4_B/c/[Q:1/4=76] e2[Q:1/4=72] d) z :| %65
[Q:1/4=80]!p! (d2 c2 d2 | f2 e2 d2) | (d2 c2[Q:1/4=76] d2 |[Q:1/4=80] f2 e2[Q:1/4=76] d>c) | %69
[Q:1/4=80]!p! (c2 =B2 c2 | e2 =d2 c2) | (c2 =B2[Q:1/4=76] c2 | %72
[Q:1/4=80] =d3[Q:1/4=76]!mp!!<(! !>!d[Q:1/4=72].c.B)!<)! |[Q:1/4=80]!mf! (e2 =d2 c2 | %74
 !>!c4[Q:1/4=76] B2) |[Q:1/4=80] (e2 =A2 B2 | !>!c4[Q:1/4=76][Q:1/4=72] B2) |[Q:1/4=80] !>!B6- | %78
 B2!<(! (PB.=A.B!<)!.=B) | (c2"^rit."[Q:1/4=76] d2[Q:1/4=72] [=B=d]2 | %80
[Q:1/4=68] [ce]3)[Q:1/4=66] [=B=d][Q:1/4=64] [ce][c=e] | %81
"^a tempo"!f![Q:1/4=84] (f4[Q:1/4=80] (3edB |[Q:1/4=84] A4)[Q:1/4=76][Q:1/4=80] c>B | %83
[Q:1/4=84] E3[Q:1/4=76] (3(E/=F/G/[Q:1/4=80] [GB]>[FA] |[Q:1/4=84] [EG]2{AG} F2)[Q:1/4=80] z2 | %85
[Q:1/4=84]!<(! (d2[Q:1/4=72][Q:1/4=84] g2[Q:1/4=80] f2 | %86
[Q:1/4=76] (6:4:6=d/e/f/e/d/e/[Q:1/4=84] b3[Q:1/4=80][Q:1/4=76][Q:1/4=72] a!<)! | %87
!f![Q:1/4=68]!>(! [=gd'])[Q:1/4=84](!>!f'- f'/=e'/_e'/=d'/ f'/e'/d'/_d'/!>)! | %88
 (c')(3c'/d'/c'/"_dim." b"^rit."[Q:1/4=80](3b/c'/b/[Q:1/4=76] a[Q:1/4=72](3g/a/g/ | %89
"^(a tempo)"[Q:1/4=84]!mf! f4[Q:1/4=76] =d/4e/4f/4e/4[Q:1/4=68] (6:4:6g/4f/4e/4_d/4c/4B/4 | %90
[Q:1/4=84] A2)[Q:1/4=80]!<(! (__B2[Q:1/4=76] =A2)!<)! |[Q:1/4=84] (=d2!<(! ^c2 _d2!<)! | %92
 dc/d/ e2 f2 |"_dim." gd/e/ fc fc/=d/ | %94
[Q:1/4=76] eB[Q:1/4=72] e[Q:1/4=68]B/c/[Q:1/4=36] (3!arpeggio!Pd/c/d/ f/)[Q:1/4=20]!fermata!z/4[Q:1/4=80]e/4 | %95
!p! A2- (A/>B/A/>__B/ A/>_B/A/>__B/ | %96
[Q:1/4=76]!p! A/z/4=A/4_B/c/[Q:1/4=72] e2[Q:1/4=60] d) z!D.C.! |] %97
V:2
!ped! (C,/4[E,,E,]7/4)!ped-up!!ped! (B,,/4[E,,E,]7/4)!ped-up!!ped! (A,,/4[E,,E,]7/4)!ped-up! | %1
!ped! (G,,/4[E,,E,]7/4)!ped-up!!ped! (^^F,,/4[E,,E,]7/4)!ped-up! z2 | %2
!ped! [^^F,^A,CE^^F]z/.[^^F,,F,]/!ped-up! .[G,,G,]2 .[G,,,G,,]2 | %3
!ped! .[C,,C,]2 !arpeggio!.[C,G,E]2!ped-up! z2 | %4
!ped! [C,,,C,,] [G,^B,F]/[G,B,F]/ [G,B,F][G,B,F]!ped-up!!ped! C,[G,=B,C^E]!ped-up! | %5
!ped! F,2!ped-up!!ped! ^E,2!ped-up!!ped! F,2!ped-up! |!ped! x D,3!ped-up!!ped! x2!ped-up! | %7
!ped! (G,,D,^B,G,!>!G) z!ped-up! |!ped! z G,2 G,2!ped-up!!ped! x!ped-up! | %9
!ped! FC!ped-up!!ped! GC!ped-up!!ped! AC!ped-up! |!<(!!ped! (A,C=DE!<)! F2)!ped-up! | %11
!ped! (3(E^DG F2 E) z!ped-up! | %12
!ped! (C,/4[E,,E,]7/4)!ped-up!!ped! (B,,/4[E,,E,]7/4)!ped-up!!ped! (A,,/4[E,,E,]7/4)!ped-up! | %13
!ped! (G,,/4[E,,E,]7/4)!ped-up!!ped! (^^F,,/4[E,,E,]7/4)!ped-up! z2 | %14
!ped! [^^F,^A,CE^^F]z/.[^^F,,F,]/!ped-up! .[G,,G,]2 .[G,,,G,,]2 | %15
!ped! .[C,,C,]2 !arpeggio!.[C,G,E]2!ped-up! z2 | %16
!ped! [C,,,C,,] [G,^B,F]/[G,B,F]/ [G,B,F][G,B,F]!ped-up!!ped! C,[G,=B,C^E]!ped-up! | %17
!ped! F,2!ped-up!!ped! ^E,2!ped-up!!ped! F,2!ped-up! |!ped! x D,3!ped-up!!ped! x2!ped-up! | %19
!ped! (G,,D,^B,G,!>!G) z!ped-up! |!ped! x G,2 G,2!ped-up!!ped! x!ped-up! | %21
!ped! (FC)!ped-up!!ped! (GC)!ped-up!!ped! (AC)!ped-up! |!<(!!ped! (A,C=DE!<)! F2)!ped-up! | %23
!ped! (3(E^DG F2 E) z!ped-up! |:!ped! .G,,, ([G,,D,]2 [G,,D,][G,,D,][G,,D,])!ped-up! | %25
!ped! [G,,E,].G,,, z ([G,,E,]2 [G,,D,])!ped-up! | %26
!p!!ped! .G,,, ([G,,D,]2 [G,,D,][G,,D,][G,,D,])!ped-up! | %27
!ped! [G,,F,].G,,, z ([G,,F,]2 [G,,E,])!ped-up! | %28
!ped! .G,,, ([G,,E,]2 [G,,E,][G,,E,][G,,E,])!ped-up! | %29
!ped! [G,,E,].G,,, z ([G,,E,]2 [G,,D,])!ped-up! |!ped! [G,,E,].G,,, z ([G,,E,]2 [G,,D,])!ped-up! | %31
!ff!!ped! [D,,,D,,][D,^A,]/[D,A,]/ [D,A,][D,A,] [D,A,][D,A,]!ped-up! | %32
!ped! [G,,D,] z z2!ped-up! z2 |!ped!!<(! x[K:treble] B,2 B,2!<)! B,!ped-up! | %34
!ped! [FA]4!ped-up!!ped! [EA]2!ped-up! |!ped! [DA]4!ped-up!!ped! [EA]2!ped-up! | %36
!ped! [FA]4!ped-up!!ped! [EA]2!ped-up! |!ped! ([DA]4!ped-up!!ped! [EA]2!ped-up! | %38
!ped! [FA]4!ped-up!!ped! [EA]2!ped-up! |!pp!!ped! A6!ped-up! |!ped! A4 G2!ped-up! | %41
!ped! EG)!ped-up!"^con forza"!ped! ^B,[FG]!ped-up!!ped! C[EG]!ped-up! | %42
[K:bass]!ped! A,[CF]!ped-up!!ped! G,[CE]!ped-up!!ped! F,[CD]!ped-up! | %43
!ped! x D,3!ped-up!!ped! x2!ped-up! |!ped! (G,,D,^B,G,!>!G) z!ped-up! | %45
!ped! x G,2 G,2!ped-up!!ped! x!ped-up! |!ped! (FC)!ped-up!!ped! (GC)!ped-up!!ped! (AC)!ped-up! | %47
!<(!!ped! (A,C=DE!<)! F2)!ped-up! |!ped! (3((E^DG F2 E)) z!ped-up! :: %49
[K:Db]!ped! (.D,,.[D,A,].[D,A,].[D,=A,]!ped-up!!ped!.[D,B,].[D,C])!ped-up! | %50
!ped! [D,D][D,D][D,D][D,D]!ped-up!!ped![=G,D][G,D]!ped-up! | %51
!ped! A,A,A,A,!ped-up!!ped!A,A,!ped-up! |!ped! A,A,A,A,!ped-up!!ped!_CC!ped-up! | %53
!ped! [B,D][B,D]!ped-up!!ped![__B,D][B,D]!ped-up!!ped![A,D][A,D]!ped-up! | %54
!ped! [=G,E][G,E]!ped-up!!ped![_G,A,E][G,A,E]!ped-up!!ped![F,A,D][_F,A,D]!ped-up! | %55
!ped! [E,,E,][K:treble] (.[EBd] .[EBd].[EBd] .[EBd].[EBd])!ped-up! | %56
[K:bass]!ped! .A,,[A,EG]!ped-up!!ped! .A,,[A,EG]!ped-up!!ped! .A,,,!^![A,A]!ped-up! | %57
 D,,,[D,A,][D,A,][D,=A,][D,B,]"^dolciss."[D,C] | %58
!ped! [D,D]D!ped-up!!ped!D^C!ped-up!!ped!=CC!ped-up! | %59
!ped! =B,B,!ped-up!!ped!_B,__B,!ped-up!!ped!_A,__A,!ped-up! | %60
!ped! _G,G,!ped-up!!ped!GG!ped-up!!ped!FF!ped-up! | %61
!ped! [EG][EG]!ped-up!!ped![F,F][F,E]!ped-up!!ped![B,=D][B,D]!ped-up! | %62
!ped! [E,_D][E,D]!ped-up!!ped![A,C][A,E]!ped-up!!ped![D,A,D][=G,D]/ z/!ped-up! | %63
!ped! A,,[A,D][A,D][A,D][A,D][A,D]!ped-up! |!ped! .A,,,[A,E] z!ped-up! ([A,C][D,D]) z :| %65
!ped! (E2- (5:4:5E/F/E/!ped-up!=D/E/!ped-up!!ped! G>_D | %66
!ped! D>C!ped-up!!ped! E2)!ped-up!!ped! z2!ped-up! | %67
!ped! (E,,/E,/G,/A,/!<(!!ped-up!!ped! __B,/G,/E,/E/!<)!!p!!ped-up!!ped! G>D!ped-up! | %68
!ped! D>C!ped-up!!ped! E) z!ped-up!!ped! z2!ped-up! | %69
!ped! z2!ped-up!!ped! z (=D/E/!ped-up!!ped! =G/F/D/C/!ped-up! | %70
!ped! C>=B,!ped-up!!ped! =D2)!ped-up!!ped! z2!ped-up! | %71
!ped! (=D,,/=D,/F,/=G,/!<(!!ped-up!!ped! _B,/A,/F,/D,/!<)!!p!!ped-up!!ped! F>C!ped-up! | %72
!ped! C>_C!ped-up!!ped! B,2)!ped-up!!ped! z2!ped-up! | %73
"^(dolce)"!ped! (B,,,/B,,/E,/F,/!<(!!ped-up!!ped! =G,/F,/E,/B,,/!<)!!ped-up!!ped! .B,2)!ped-up! | %74
!ped! (B,,,/B,,/F,/=G,/!<(!!ped! A,/G,/F,/B,,/!ped-up!!<)!!ped-up!!ped! .B,2)!ped-up! | %75
!ped! (B,,,/B,,/E,/F,/!<(!!ped! =G,/F,/E,/C/!ped-up!!<)!!ped-up!!ped! .B,2)!ped-up! | %76
!f!!ped! (B,,,/B,,/!<(!F,/^F,/!ped-up!!ped! =G,/^G,/=A,/B,/!ped-up!!ped! C/=D/!<)!E/=F/!ped-up! | %77
!ped! =G2)!ped-up!!ped! !>!_F3 E!ped-up! |!ped! _F>E"_ben legato"!ped-up!!ped! F3 E!ped-up! | %79
!ped! __B,2!ped! (__B,,3!ped-up!!ped! [A,,,A,,]!ped-up! | %80
!ped! [__B,,,__B,,]>[A,,,A,,]!ped-up! [B,,,B,,]3!ped-up!!ped! [A,,,A,,]) | %81
!ped! (.D,,.[D,A,].[D,A,].[D,=A,]!ped-up!!ped!.[D,B,].[D,C])!ped-up! | %82
!ped! [D,D][D,D][D,D][D,D]!ped-up!!ped![=G,D][G,D]!ped-up! | %83
!ped! A,A,A,A,!ped-up!!ped!A,A,!ped-up! |!ped! A,A,A,A,!ped-up!!ped!_CC!ped-up! | %85
!ped! [B,D][B,D]!ped-up!!ped![__B,D][B,D]!ped-up!!ped![A,D][A,D]!ped-up! | %86
!ped! [=G,E][G,E]!ped-up!!ped![_G,A,E][G,A,E]!ped-up!!ped![F,A,D][_F,A,D]!ped-up! | %87
!ped! [E,,E,][K:treble] (.[EBd] .[EBd].[EBd] .[EBd].[EBd])!ped-up! | %88
[K:bass]!ped! .A,,,[A,EG]!ped-up!!ped! .A,,[A,EG]!ped-up!!ped! .A,,,!^![A,A]!ped-up! | %89
 D,,,[D,A,][D,A,][D,=A,][D,B,]"^dolciss."[D,-C] | %90
!ped! [D,D]D!ped-up!!ped!D^C!ped-up!!ped!=CC!ped-up! | %91
!ped! =B,B,!ped-up!!ped!_B,__B,!ped-up!!ped!_A,__A,!ped-up! | %92
!ped! _G,G,!ped-up!!ped!GG!ped-up!!ped!FF!ped-up! | %93
!ped! [EG][EG]!ped-up!!ped![F,F][F,E]!ped-up!!ped![B,=D][B,D]!ped-up! | %94
!ped! [E,_D][E,D]!ped-up!!ped![A,C][A,-E]!ped-up!!ped![D,A,D][=G,D]/ z/!ped-up! | %95
!ped! A,,[A,D][A,D][A,D][A,D][A,D]!ped-up! |!ped! .A,,,[A,E] z!ped-up! ([A,C][D,D]) z |] %97
V:3
 x6 | x6 | x6 | x3/2 x/ x4 | x6 | F,[A,CF] ^E,[B,CG] F,[A,CF] | (G,,x^B,x[E,C]^^F,) | x6 | %8
 [G,,,G,,]G,[^B,F]G, [C,=B,^E]C | [F,A,]2 [^E,B,]2 !arpeggio![F,A,]2 | F,6 | G,3 G,C x | x6 | x6 | %14
 x6 | x3/2 x/ x4 | x6 | F,[A,CF] ^E,[B,CG] F,[A,CF] | (G,,x^B,G,[E,C]^^F,) | x6 | %20
 [G,,,G,,]G,[^B,F]G, ([C,=B,^E]C) | [F,A,]2 [^E,B,]2 !arpeggio![F,A,]2 | F,6 | G,3 G,C x |: x6 | %25
 x6 | x6 | x6 | x6 | x6 | x6 | x6 | x6 | =B,,,[K:treble]B,[DA]B,[EA]B, |xB,B,B, EB, |xB,B,B, EB, | %36
xB,B,B, EB, | DB,B,B, EB, |xB,B,B, EB, | DFDF"^ritenuto"DF | DFDFDF | x2 ^B,2 C2 | %42
[K:bass] A,2 G,2 F,2 | (G,,x^B,G, [E,C]^^F,) | x6 | .[G,,,G,,]G,[^B,F]G, ([C,=B,^E]C) | %46
 [F,A,]2 [^E,B,]2 !arpeggio![F,A,]2 | F,6 | G,3 G,C x ::[K:Db] x6 | x6 | x4 A,,2 | A,,2 D,2 z2 | %53
 x6 | x6 | x[K:treble] x5 |[K:bass] x6 | x6 | x6 | x6 | x6 | x6 | x6 | x6 | x6 :| x6 | x6 | x6 | %68
 x6 | x6 | x6 | x6 | x6 | x6 | x6 | x6 | x6 | x6 | x6 | x6 | x6 | x6 | x6 | x4 A,,2 | A,,2 D,2 z2 | %85
 x6 | x6 | x[K:treble] x5 |[K:bass] x6 | x6 | x6 | x6 | x6 | x6 | x6 | x6 | x6 |] %97
V:4
 x6 | x6 | x6 | x6 | x6 | x6 | x3 G,2 x | x6 | x6 | z7/2 (3x/4 x/4x/4 z2 | x6 | x6 | x6 | x6 | x6 | %15
 x6 | x6 | x6 | x3 G,2 x | x6 | x6 | x7/2 (3x/4 x/4x/4 x2 | x6 | x6 |: x6 | x6 | x6 | x6 | x6 | %29
 x6 | x6 | x6 | x6 | x[K:treble] x5 | x3 B,2 B, | x3 B,2 B, | x3 B,2 B, | x3 B,2 B, | x6 | x6 | %40
 x6 | x6 |[K:bass] x6 | x3 G,2 x | x6 | x6 | x7/2 (3x/4 x/4x/4 x2 | x6 | x6 ::[K:Db] x6 | x6 | x6 | %52
 x6 | x6 | x6 | x[K:treble] x5 |[K:bass] x6 | x6 | x6 | x6 | x6 | x6 | x6 | x6 | x6 :| x6 | x6 | %67
 x6 | x6 | x6 | x6 | x6 | x6 | x6 | x6 | x6 | x6 | x6 | x6 | x6 | x6 | x6 | x6 | x6 | x6 | x6 | %86
 x6 | x[K:treble] x5 |[K:bass] x6 | x6 | x6 | x6 | x6 | x6 | x6 | x6 | x6 |] %97
V:5
 x6 | x6 |[K:treble] x6 | x6 | x6 | x6 | x6 | x6 | x6 | x6 | x2 (3:2:4x x x/!>!x/ x x | %11
 (3c^Be d2 c x |[K:bass] x6 | x6 |[K:treble] x6 | x6 | x6 | x6 | x6 | x6 | x6 | x6 | %22
 x2 (3:2:4x x x/!>!x/ x x | (3c^Be d2 c x |: x6 | (9:8:7!>!x3/4"_cresc."x/4x/4x/4x/4x/4x/4 x x x2 | %26
 x6 | (9:8:8!>!x/x/4"_cresc."x/4x/4x/4x/4x/4x/4 x x x2 | x6 | %29
 (12:4:10x3/2x/!<(!x/x/x/x/x/x/x/x/!<)! x x x2 | (12:4:10x3/2x/x/!<(!x/x/x/x/x/x/x/!<)! x x x2 | %31
 z (.[C^^F]/.[CF]/ .[CF].[CF] .[CF^B].[CF^A]) | .[^B,G] x x4 | x6 | x6 | x6 | x6 | x2[K:bass] x4 | %38
 x6 | x4- x3/2x/4x/4 | (3x/x/x/ !///-!x2 x2 (5:4:5x/4x/4x/4x/4x/4 | x2[K:treble] x4 | x6 | x6 | %44
 x6 | x6 | x6 | x2 (3x2 x/!>!x/ x x | (3c^Be d2 c x ::[K:Db] z (.F.F.F.G.G) | FFFF_FF | DDDDCC | %52
 CCDDDD | GG[Gd][Gd-][Ad][Ad] | BBcc_dd | d.=g.g.g.g.g | %56
 (3z/!>(! c/_g/g- (3g/c/g/-g (3f/c/f/!>)!(3e/f/e/ | z!<(! FFFG!<)!G | FF_F=E[=D^F][DF] | %59
 [=D=G][DG][=EG][EG][F_A][_FB] | [E__B][EB][Bc][Ac][Ad][Ad] | _BB =AA _AA | %62
 =GG _GG F!arpeggio![EB]/ !fermata!z/ | z!<(! [E_G][EG][EG][EG][EG]!<)! | [CG] z z GF x :| %65
 z [G__B][GB][GB]BB | [G__B][GB][GB][GB][GB][GB] | [G__B][GB][GB][GB]BB | %68
 [G__B][GB][GB][GB][GB][GB] | [FA][FA][FA][FA]AA | [FA][FA][FA][FA][FA][FA] | [FA][FA][FA][FA]AA | %72
 [FA][FA] [FA][FA] [EA][=DA] | [E=G][EG][EG][EG][EG][EG] | [=DA][DA][DA][DA][DA][DA] | %75
 [E=G][EG][EG][EG][EG][EG] | [=D_A][DA][DA][DA]AA | z _D[D=G][DG][DG][DG] | %78
 [D=G][DG][DG][DG][DG][DG] | [E_G][EG][EG][EG][EG][EG] | [EG][EG][EG][EG][EG][EG] | %81
 z (.F.F.F.G.G) | FFFF_FF | DDDDCC | CCDDDD | GG[Gd][Gd-][Ad][Ad] | BBcc_dd | d.=g.g.g.g.g | %88
 (3z/!>(! c/_g/g- (3g/c/g/-g (3f/c/f/!>)!(3e/f/e/ | z!<(! FFFG!<)!G | FF_F=E[=D^F][DF] | %91
 [=D=G][DG][=EG][EG][F_A][_FB] | [E__B][EB][Bc][Ac][Ad][Ad] | _BB =AA _AA | %94
 =GG _GG F!arpeggio![EB]/ !fermata!z/ | z!<(! [E_G][EG][EG][EG][EG]!<)! | [CG] z z GF x |] %97
V:6
 x6 | x6 |[K:treble] x6 | x6 | x6 | x6 | x6 | x6 | x6 | x6 | x6 | x6 |[K:bass] x6 | x6 | %14
[K:treble] x6 | x6 | x6 | x6 | x6 | x6 | x6 | x6 | x6 | x6 |: x6 | x6 | x6 | x6 | x6 | x6 | x6 | %31
 x6 | x6 | x6 | x6 | x6 | x6 | x2[K:bass] x4 | x6 | x6 | x6 | x2[K:treble] x4 | x6 | x6 | x6 | x6 | %46
 x6 | x6 | x6 ::[K:Db] x6 | x3- (6:1:6AABA=GA x2 | x6 | x-(3x/x/x/ x2 z2 | x- (6:1:6ddedcd- x4 | %54
 x6 | x6 | x6 | x6 | x6 | x6 | x6 | x6 | x3 x3/4 x/4-(9:8:7x/8x/8x/8 x3/8 x/8 x/8x/8 x | x6 | %64
 x3 _A2 x :| x6 | x6 | x6 | x6 | x6 | x6 | x6 | x6 | x6 | x6 | x6 | x6 | x6 | x6 | x6 | x6 | x6 | %82
 x3- (6:1:6AABA=GA x2 | x6 | x-(3x/x/x/ x2 z2 | x- (6:1:6ddedcd- x4 | x6 | x6 | x6 | x6 | x6 | x6 | %92
 x6 | x6 | x3 x3/4 x/4-(9:8:7x/8x/8x/8 x3/8 x/8 x/8x/8 x | x6 | x3 _A2 x |] %97

